X: 129
T: Wieczny Boże, nie najdziesz pychy w sercu moim,
C: Mikołaj Gomółka
%%abc-version 2.0
%%abcx-abcm2ps-target-version 5.9.1 (29 Sep 2008)
%%abc-creator hum2abc beta
%%abcx-conversion-date 2021/10/04 07:59:10
%%abc-edited-by Leszek Kubiak
%%abcx-initial-encoding-date data 2020-02-21
%%humdrum-veritas 3339321260
%%humdrum-veritas-data 4047725419
%%linebreak <none>
%%barnumbers 0
L: 1/4
M: C|
N: Derived from pl-wn--sd-xvi-qu-273--131_gomolka-mikolaj--wieczny-boze-nie-najdziesz-pychy-w-sercu-moim.krn
%%staves [1 2 3 4]
V: 1
V: 2 clef=alto
V: 3 clef=alto
V: 4 clef=bass
K: F
[V:1] D4G2G2 [|] 
[V:2] B,2>C2D2D3 [|] 
[V:3] G,4B,2B,2 [|] 
[V:4] G,,4G,,A,,B,,C, [|] 
[V:1] F2B2A3G [|] 
[V:2] CDE2<F2E [|] 
[V:3] A,2>B,2C2D3 [|] 
[V:4] D,2G,2F,2D,2 [|] 
[V:1] FED2AGF3 [|] 
[V:2] D2>E2FEDC [|] 
[V:3] CB,2CB,A,G, [|] 
[V:4] D,2G,2F,3E, [|] 
[V:1] ED4C2 [|] 
[V:2] B,2>A,2G,F,G,2 [|] 
[V:3] F,2F,2G,4 [|] 
[V:4] D,C,B,,2E,4 [|] 
[V:1] D2A2>G2F2 [|] 
[V:2] F,2F2E2D2 [|] 
[V:3] A,2D2^C2DC [|] 
[V:4] D,2D,2A,,2B,,2 [|] 
[V:1] B2>A2GFG2 [|] 
[V:2] D2D4C2 [|] 
[V:3] B,A,G,A,B,2A,G, [|] 
[V:4] G,,2_F,E,D,C,E,2 [|] 
[V:1] F2A4B2 [|] 
[V:2] D2D4F2 [|] 
[V:3] A,2A,4F,2 [|] 
[V:4] D,2F,4D,2 [|] 
[V:1] G2G4F2 [|] 
[V:2] E2E2D3C [|] 
[V:3] G,2CB,A,G,A,2 [|] 
[V:4] E,2C,2D,4 [|] 
[V:1] G4F6 [|] 
[V:2] =B,4D6 [|] 
[V:3] G,4A,6 [|] 
[V:4] G,,4D,6 [|] 
[V:1] F2G2A2 [|] 
[V:2] D2D2D2 [|] 
[V:3] A,2B,2A,2 [|] 
[V:4] D,2G,2^F,2 [|] 
[V:1] G2G2F2A2 [|] 
[V:2] D2G,2A,2D2 [|] 
[V:3] B,2>C2DEF2 [|] 
[V:4] G,2_E,2D,2D,2 [|] 
[V:1] GAB2B2A2 [|] 
[V:2] B,2F2F3E [|] 
[V:3] EDDC/B,/C2C2 [|] 
[V:4] E,2B,,2F,2F,,2 [|] 
[V:1] B2A2A2A2 [|] 
[V:2] D2D2D3E [|] 
[V:3] B,2F2F3_E [|] 
[V:4] B,,2D,2D,2D,2 [|] 
[V:1] B2>A2G4 [|] 
[V:2] F4_E2C2 [|] 
[V:3] D2>C2B,2A,G, [|] 
[V:4] B,,4E,2E,2 [|] 
[V:1] F2A4A2 [|] 
[V:2] D2F4F2 [|] 
[V:3] A,2D4C2 [|] 
[V:4] D,2D,4F,2 [|] 
[V:1] G2G4F2 [|] 
[V:2] E2C2D3C [|] 
[V:3] C2G,2B,2A,2 [|] 
[V:4] C,2E,2D,4 [|] 
[V:1] G32 [|] 
[V:2] B,32 [|] 
[V:3] G,32 [|] 
[V:4] G,,32 [|] 


